X:103
T: KLING KLING GLOECKCHEN
N: K2093
O: Europa, Mitteleuropa, Deutschland, Erfurt
R: Kinder - Lied, Reigen, Tanz - Spiel
M: 2/4
L: 1/16
K: G
 | G4B4 | d4B2
D2 | G2A2B2c2 | d4B4 |
d2c2B2A2 | G4z2
D2 | G2A2B2c2 | d4B4 |
d2c2B2A2 | G4z4 |
d4B4 | d2d2B4 |
G2A2B2c2 | d2d2B4 |
d2c2B2A2 | G4z2
G2 | d2d2B2B2 | d2d2B4 |
d2ddB2B2 | d2d2B4 |
G2A2B2c2 | d2e2d4 |
c2c2A2A2 | G2B2G4

@@@ Tune index: 7440
